images_sukapura_svg/cmd/lc_beziercutline.svg

<svg viewBox="0 0 24 24" xmlns="http://www.w3.org/2000/svg" xmlns:xlink="http://www.w3.org/1999/xlink"><linearGradient id="a" gradientUnits="userSpaceOnUse" x1="-19.897808" x2="-19.579052" y1="17.182213" y2="1.995771"><stop offset="0" stop-color="#0040dd"/><stop offset="1" stop-color="#0a84ff"/></linearGradient><linearGradient id="b" gradientTransform="matrix(.26458333 0 0 .26458333 101.6 307.58333)" gradientUnits="userSpaceOnUse" x1="18.5" x2="18.5" y1="23" y2="14.5"><stop offset="0" stop-color="#d70015"/><stop offset="1" stop-color="#ff453a"/></linearGradient><linearGradient id="c" gradientUnits="userSpaceOnUse" x1="7.627119" x2="7.576271" xlink:href="#b" y1="21.516949" y2="18.771187"/><linearGradient id="d" gradientUnits="userSpaceOnUse" x1="16.423729" x2="16.576271" xlink:href="#b" y1="21.923729" y2="19.076271"/><linearGradient id="e" gradientUnits="userSpaceOnUse" x1="11.237288" x2="11.457627" xlink:href="#b" y1="7.042373" y2="2.567797"/><linearGradient id="f" gradientUnits="userSpaceOnUse" x1="13" x2="13" xlink:href="#a" y1="5" y2="4"/><linearGradient id="g" gradientUnits="userSpaceOnUse" x1="6" x2="6" xlink:href="#a" y1="21" y2="20"/><linearGradient id="h" gradientUnits="userSpaceOnUse" x1="18" x2="18" xlink:href="#a" y1="21" y2="20"/><linearGradient id="i" gradientUnits="userSpaceOnUse" x1="11.51736" x2="11.527326" xlink:href="#a" y1="16.887394" y2="9.029556"/><path d="m2 4v1h8v-1zm11 0v1h9v-1z" fill="url(#f)"/><path d="m10 2c-.554 0-1 .446-1 1v3c0 .554.446 1 1 1h3c.554 0 1-.446 1-1v-3c0-.554-.446-1-1-1zm0 1h3v3h-3z" fill="url(#e)"/><path d="m11.5 9c-.277 0-.5.223-.5.5v3.501953h-2.5a.49857654.49858476 0 0 0 -.3515625.849609l3.0000005 3a.49857654.49858476 0 0 0 .703124 0l3-3a.49857654.49858476 0 0 0 -.351562-.849609h-2.5v-3.501953c0-.277-.223-.5-.5-.5z" fill="url(#i)" transform="scale(1.00000001 1)"/><path d="m6 19h3v3h-3z" fill="url(#c)"/><path d="m15 19h3v3h-3z" fill="url(#d)"/><g fill="#808080"><path d="m18 20h4v1h-4z" fill="url(#h)"/><path d="m2 20h4v1h-4z" fill="url(#g)"/></g></svg>

<?xml version="1.0" encoding="UTF-8" standalone="no"?>
<svg
   xmlns:dc="http://purl.org/dc/elements/1.1/"
   xmlns:cc="http://creativecommons.org/ns#"
   xmlns:rdf="http://www.w3.org/1999/02/22-rdf-syntax-ns#"
   xmlns:svg="http://www.w3.org/2000/svg"
   xmlns="http://www.w3.org/2000/svg"
   xmlns:xlink="http://www.w3.org/1999/xlink"
   xmlns:sodipodi="http://sodipodi.sourceforge.net/DTD/sodipodi-0.dtd"
   xmlns:inkscape="http://www.inkscape.org/namespaces/inkscape"
   viewBox="0 0 24 24"
   version="1.1"
   id="svg22"
   sodipodi:docname="lc_beziercutline.svg"
   inkscape:version="0.92.3 (unknown)">
  <metadata
     id="metadata28">
    <rdf:RDF>
      <cc:Work
         rdf:about="">
        <dc:format>image/svg+xml</dc:format>
        <dc:type
           rdf:resource="http://purl.org/dc/dcmitype/StillImage" />
      </cc:Work>
    </rdf:RDF>
  </metadata>
  <defs
     id="defs26">
    <linearGradient
       id="d"
       gradientUnits="userSpaceOnUse"
       x1="-19.897808"
       x2="-19.579052"
       y1="17.182213"
       y2="1.9957711">
      <stop
         offset="0"
         stop-color="#0040dd"
         id="stop9" />
      <stop
         offset="1"
         stop-color="#0a84ff"
         id="stop11" />
    </linearGradient>
    <linearGradient
       id="c"
       gradientUnits="userSpaceOnUse"
       x1="14.559322"
       x2="14.576271"
       xlink:href="#a"
       y1="4.7203388"
       y2="2.144068"
       gradientTransform="translate(-30.290237,2.2312304)" />
    <linearGradient
       id="a"
       gradientTransform="matrix(0.26458333,0,0,0.26458333,101.6,307.58333)"
       gradientUnits="userSpaceOnUse"
       x1="18.5"
       x2="18.5"
       y1="23"
       y2="14.5">
      <stop
         offset="0"
         stop-color="#d70015"
         id="stop2" />
      <stop
         offset="1"
         stop-color="#ff453a"
         id="stop4" />
    </linearGradient>
    <linearGradient
       inkscape:collect="always"
       xlink:href="#a"
       id="linearGradient889"
       x1="7.6271186"
       y1="21.516949"
       x2="7.5762711"
       y2="18.771187"
       gradientUnits="userSpaceOnUse" />
    <linearGradient
       inkscape:collect="always"
       xlink:href="#a"
       id="linearGradient891"
       x1="16.423729"
       y1="21.923729"
       x2="16.576271"
       y2="19.076271"
       gradientUnits="userSpaceOnUse" />
    <linearGradient
       inkscape:collect="always"
       xlink:href="#a"
       id="linearGradient893"
       x1="11.237288"
       y1="7.0423727"
       x2="11.457627"
       y2="2.5677967"
       gradientUnits="userSpaceOnUse" />
    <linearGradient
       inkscape:collect="always"
       xlink:href="#d"
       id="linearGradient925"
       x1="13"
       y1="5"
       x2="13"
       y2="4"
       gradientUnits="userSpaceOnUse" />
    <linearGradient
       inkscape:collect="always"
       xlink:href="#d"
       id="linearGradient927"
       x1="6"
       y1="21"
       x2="6"
       y2="20"
       gradientUnits="userSpaceOnUse" />
    <linearGradient
       inkscape:collect="always"
       xlink:href="#d"
       id="linearGradient929"
       x1="18"
       y1="21"
       x2="18"
       y2="20"
       gradientUnits="userSpaceOnUse" />
    <linearGradient
       inkscape:collect="always"
       xlink:href="#d"
       id="linearGradient944"
       x1="11.51736"
       y1="16.887394"
       x2="11.527326"
       y2="9.0295563"
       gradientUnits="userSpaceOnUse" />
  </defs>
  <sodipodi:namedview
     pagecolor="#ffffff"
     bordercolor="#666666"
     borderopacity="1"
     objecttolerance="10"
     gridtolerance="10"
     guidetolerance="10"
     inkscape:pageopacity="0"
     inkscape:pageshadow="2"
     inkscape:window-width="1366"
     inkscape:window-height="706"
     id="namedview24"
     showgrid="false"
     inkscape:snap-global="false"
     inkscape:zoom="8"
     inkscape:cx="-4.7837899"
     inkscape:cy="-1.9727601"
     inkscape:window-x="0"
     inkscape:window-y="0"
     inkscape:window-maximized="1"
     inkscape:current-layer="svg22">
    <inkscape:grid
       type="xygrid"
       id="grid931" />
  </sodipodi:namedview>
  <path
     d="m2 4v1h8v-1zm11 0v1h9v-1z"
     fill="#808080"
     id="path2"
     style="fill-opacity:1;fill:url(#linearGradient925)" />
  <path
     d="m10 2c-.554 0-1 .446-1 1v3c0 .554.446 1 1 1h3c.554 0 1-.446 1-1v-3c0-.554-.446-1-1-1zm0 1h3v3h-3z"
     fill="#808080"
     id="path4"
     style="fill-opacity:1;fill:url(#linearGradient893)" />
  <g
     fill="none"
     stroke="#4d82b8"
     stroke-linecap="round"
     stroke-linejoin="round"
     transform="matrix(.99998451 0 0 1.000001 -7.999748 -.000014)"
     id="g10">
    <path
       style="fill:url(#linearGradient944);fill-opacity:1;stroke:none;stroke-width:1;stroke-miterlimit:4;stroke-dasharray:none"
       d="M 11.5 9 C 11.223 9 11 9.223 11 9.5 L 11 13.001953 L 8.5 13.001953 A 0.49857654 0.49858476 0 0 0 8.1484375 13.851562 L 11.148438 16.851562 A 0.49857654 0.49858476 0 0 0 11.851562 16.851562 L 14.851562 13.851562 A 0.49857654 0.49858476 0 0 0 14.5 13.001953 L 12 13.001953 L 12 9.5 C 12 9.223 11.777 9 11.5 9 z "
       transform="matrix(1.0000155,0,0,0.999999,7.9998719,1.3999986e-5)"
       id="path6" />
  </g>
  <path
     d="m6 19h3v3h-3z"
     fill="#4d82b8"
     id="path12"
     style="fill-opacity:1;fill:url(#linearGradient889)" />
  <path
     d="m15 19h3v3h-3z"
     fill="#4d82b8"
     id="path14"
     style="fill-opacity:1;fill:url(#linearGradient891)" />
  <g
     fill="#808080"
     id="g20">
    <path
       d="m18 20h4v1h-4z"
       id="path16"
       style="fill-opacity:1;fill:url(#linearGradient929)" />
    <path
       d="m2 20h4v1h-4z"
       id="path18"
       style="fill-opacity:1;fill:url(#linearGradient927)" />
  </g>
</svg>
